X: 4
T: Bo Mhin Na Toitean
R: strathspey
M: 4/4
L: 1/8
K: Dmix
|:D2A2 A2GE | G2 AB cA d2 | D2A2 A2GE | dcAG EAGE |
D2A2 A2GE | G2 AB cA d2 | cAGE AcGE | E2 D2 DE =FE :||
|:D2 d2 d2 cA | G2 AB cA d2 | D2d2 d2cA | dcAG EAGE|
D2d2 d2cA | G2 AB cA d2 | cAGE AcGE |E2 D2 DE =FE :||


Tune 5252	Setting 27629

